X: 7
T:Many Mosk. JNu.07
T:Money Musk,aka. JNu.07
M:4/4
L:1/8
Q:160
C:Money Musk,aka
S:James Nuttall MS,c1830,Rossendale,East Lancs.
R:Strathspey
O:England
A:East Lancashire
Z:vmp.Manchester Morris Men
K:A
f|e>Ac>A e>Ad>f|e>Ac>A B/c/B d>f|e>Ac>A c/d/e e>a|f>dB>e c>AA:|!
|:f/g/|a>ec>a e>ac>a|a>ed>a c>aB>a|a>ef>a e>ac>a|f>dB>d c>AA:|]
